release/img/icons/reciept.svg

<svg width="18" height="20" fill="none" xmlns="http://www.w3.org/2000/svg"><path d="M15 15H3v-2h12v2zm0-4H3V9h12v2zm0-4H3V5h12v2zM0 20l1.5-1.5L3 20l1.5-1.5L6 20l1.5-1.5L9 20l1.5-1.5L12 20l1.5-1.5L15 20l1.5-1.5L18 20V0l-1.5 1.5L15 0l-1.5 1.5L12 0l-1.5 1.5L9 0 7.5 1.5 6 0 4.5 1.5 3 0 1.5 1.5 0 0v20z" fill="#FF8B37"/></svg>

<svg width="18" height="20" viewBox="0 0 18 20" fill="none" xmlns="http://www.w3.org/2000/svg">
<path d="M15 15H3V13H15V15ZM15 11H3V9H15V11ZM15 7H3V5H15V7ZM0 20L1.5 18.5L3 20L4.5 18.5L6 20L7.5 18.5L9 20L10.5 18.5L12 20L13.5 18.5L15 20L16.5 18.5L18 20V0L16.5 1.5L15 0L13.5 1.5L12 0L10.5 1.5L9 0L7.5 1.5L6 0L4.5 1.5L3 0L1.5 1.5L0 0V20Z" fill="#FF8B37"/>
</svg>
